IMG/ICON/bars-solid.svg

<svg xmlns="http://www.w3.org/2000/svg" viewBox="0 0 448 512"><!--!Font Awesome Free 6.6.0 by @fontawesome - https://fontawesome.com License - https://fontawesome.com/license/free Copyright 2024 Fonticons, Inc.--><path d="M0 96C0 78.3 14.3 64 32 64l384 0c17.7 0 32 14.3 32 32s-14.3 32-32 32L32 128C14.3 128 0 113.7 0 96zM0 256c0-17.7 14.3-32 32-32l384 0c17.7 0 32 14.3 32 32s-14.3 32-32 32L32 288c-17.7 0-32-14.3-32-32zM448 416c0 17.7-14.3 32-32 32L32 448c-17.7 0-32-14.3-32-32s14.3-32 32-32l384 0c17.7 0 32 14.3 32 32z"/></svg>

<svg width="448" height="512" viewBox="0 0 448 512" fill="none" xmlns="http://www.w3.org/2000/svg">
<path d="M0 96C0 78.3 14.3 64 32 64H416C433.7 64 448 78.3 448 96C448 113.7 433.7 128 416 128H32C14.3 128 0 113.7 0 96ZM0 256C0 238.3 14.3 224 32 224H416C433.7 224 448 238.3 448 256C448 273.7 433.7 288 416 288H32C14.3 288 0 273.7 0 256ZM448 416C448 433.7 433.7 448 416 448H32C14.3 448 0 433.7 0 416C0 398.3 14.3 384 32 384H416C433.7 384 448 398.3 448 416Z" fill="white"/>
</svg>
